actions/16/go-previous.svg

<?xml version="1.0" encoding="UTF-8" standalone="no"?>
<svg
   xmlns:dc="http://purl.org/dc/elements/1.1/"
   xmlns:cc="http://creativecommons.org/ns#"
   xmlns:rdf="http://www.w3.org/1999/02/22-rdf-syntax-ns#"
   xmlns:svg="http://www.w3.org/2000/svg"
   xmlns="http://www.w3.org/2000/svg"
   xmlns:xlink="http://www.w3.org/1999/xlink"
   version="1.1"
   width="16"
   height="16"
   id="svg4524">
  <defs
     id="defs4526">
    <linearGradient
       id="linearGradient2867-449-88-871-390-598-476-591-434-148-57-177-641-289-620-227-114-444-680-744-4-1">
      <stop
         id="stop5430-5-0"
         style="stop-color:#737373;stop-opacity:1"
         offset="0" />
      <stop
         id="stop5432-2-0"
         style="stop-color:#636363;stop-opacity:1"
         offset="0.26238" />
      <stop
         id="stop5434-9-6"
         style="stop-color:#4b4b4b;stop-opacity:1"
         offset="0.704952" />
      <stop
         id="stop5436-2-7"
         style="stop-color:#3f3f3f;stop-opacity:1"
         offset="1" />
    </linearGradient>
    <radialGradient
       cx="16.202444"
       cy="-19.005346"
       r="19.99999"
       fx="16.202444"
       fy="-19.005346"
       id="radialGradient3769"
       xlink:href="#linearGradient2867-449-88-871-390-598-476-591-434-148-57-177-641-289-620-227-114-444-680-744-4-1"
       gradientUnits="userSpaceOnUse"
       gradientTransform="matrix(0,1.5000006,-1.5241254,0,-16.959842,-23.077676)" />
    <radialGradient
       cx="16.202444"
       cy="-19.005346"
       r="19.99999"
       fx="16.202444"
       fy="-19.005346"
       id="radialGradient3896"
       xlink:href="#linearGradient2867-449-88-871-390-598-476-591-434-148-57-177-641-289-620-227-114-444-680-744-4-1"
       gradientUnits="userSpaceOnUse"
       gradientTransform="matrix(0,1.5000006,-1.5241254,0,-17.131885,-23.077676)" />
    <radialGradient
       cx="16.202444"
       cy="-19.005346"
       r="19.99999"
       fx="16.202444"
       fy="-19.005346"
       id="radialGradient3896-0"
       xlink:href="#linearGradient2867-449-88-871-390-598-476-591-434-148-57-177-641-289-620-227-114-444-680-744-4-1-5"
       gradientUnits="userSpaceOnUse"
       gradientTransform="matrix(0,1.2955087,-1.315286,0,-17.155934,-22.270403)" />
    <linearGradient
       id="linearGradient2867-449-88-871-390-598-476-591-434-148-57-177-641-289-620-227-114-444-680-744-4-1-5">
      <stop
         id="stop5430-5-0-9"
         style="stop-color:#737373;stop-opacity:1"
         offset="0" />
      <stop
         id="stop5432-2-0-0"
         style="stop-color:#636363;stop-opacity:1"
         offset="0.26238" />
      <stop
         id="stop5434-9-6-8"
         style="stop-color:#4b4b4b;stop-opacity:1"
         offset="0.704952" />
      <stop
         id="stop5436-2-7-0"
         style="stop-color:#3f3f3f;stop-opacity:1"
         offset="1" />
    </linearGradient>
    <linearGradient
       id="linearGradient2264">
      <stop
         id="stop2266"
         style="stop-color:#d7e866;stop-opacity:1"
         offset="0" />
      <stop
         id="stop2268"
         style="stop-color:#8cab2a;stop-opacity:1"
         offset="1" />
    </linearGradient>
  </defs>
  <metadata
     id="metadata4529">
    <rdf:RDF>
      <cc:Work
         rdf:about="">
        <dc:format>image/svg+xml</dc:format>
        <dc:type
           rdf:resource="http://purl.org/dc/dcmitype/StillImage" />
        <dc:title />
      </cc:Work>
    </rdf:RDF>
  </metadata>
  <path
     d="M 8.1606266,2.0025296 C 7.9460212,1.9939467 7.7454977,2.0902342 7.5876336,2.248098 L 1.3665667,8.3327373 C 1.2383024,8.4610013 1.1581751,8.6094678 1.1209983,8.7693034 1.101902,8.851404 1.0884374,8.9328925 1.0937129,9.0148718 c -0.00148,0.026447 -0.00107,0.055217 0,0.081856 0.00827,0.048005 0.01027,0.090807 0.027285,0.1364269 0.035491,0.1648194 0.1135417,0.3318243 0.2455684,0.4638515 l 6.2210669,6.0846398 c 0.3157281,0.315728 0.8312332,0.287467 1.1732714,-0.05457 l 1.227842,-1.227842 c 0.3420384,-0.342038 0.3702994,-0.884829 0.054571,-1.200557 L 7.5057771,11 13.235707,11 c 0.483715,0 0.873132,-0.62828 0.873132,-1.1119952 l 0,-1.7462643 c 0,-0.4837152 -0.389417,-0.8731319 -0.873132,-0.8731319 l -5.7572153,0 2.5648263,-2.5648255 C 10.359046,4.3880545 10.330785,3.8725492 9.988747,3.5305109 L 8.760905,2.2753834 C 8.5898854,2.1043642 8.375232,2.0111138 8.1606266,2.0025296 z"
     id="rect3811-1-7"
     style="opacity:0.35;color:#000000;fill:#ffffff;fill-opacity:1;fill-rule:nonzero;stroke:none;stroke-width:1;marker:none;visibility:visible;display:inline;overflow:visible;enable-background:accumulate" />
  <path
     d="M 8.1460369,0.99005125 C 7.9339274,0.98156135 7.735736,1.0768055 7.5797079,1.232959 L 1.2698402,7.3504628 C 1.1430676,7.4773371 1.0638722,7.6241951 1.0271278,7.7822989 1.0082536,7.86351 0.99494565,7.9441156 1.0001597,8.0252067 c -0.00146,0.026161 -0.00105,0.054619 0,0.080969 0.00817,0.047485 0.01015,0.089823 0.026968,0.1349488 0.035078,0.1630336 0.1122211,0.3282291 0.2427124,0.4588258 L 7.5797078,14.77699 c 0.3120561,0.312308 0.8295894,0.292184 1.1596261,-0.05398 l 1.2135622,-1.272864 c 0.3300359,-0.346163 0.3659919,-0.875242 0.053936,-1.187549 L 7.8,10 l 5.362094,0 c 0.478089,0 0.862977,-0.6326481 0.862977,-1.1111225 l 0,-1.7273441 C 14.025071,6.6830592 13.640218,6 13.162129,6 L 7.8,6 10.006832,3.7608247 C 10.316734,3.4463812 10.290956,2.938599 9.9528962,2.6002665 L 8.739334,1.2599487 C 8.5703034,1.0907826 8.3581464,0.99854245 8.1460369,0.99005125 z"
     id="rect3811-1"
     style="color:#000000;fill:url(#radialGradient3896-0);fill-opacity:1;fill-rule:nonzero;stroke:none;stroke-width:1;marker:none;visibility:visible;display:inline;overflow:visible;enable-background:accumulate" />
  <path
     d="m 8.1190688,1.5206764 c -0.073465,-0.00295 -0.1534322,0.018607 -0.2427124,0.107959 L 1.7276409,7.6473501 c -0.072911,0.072972 -0.1156253,0.1602302 -0.1348402,0.2429078 -0.014766,0.063532 -0.00104,0.091768 0,0.107959 2.826e-4,0.00899 2.826e-4,0.017996 0,0.02699 0.00672,0.039064 -0.00111,0.01894 0,0.02699 -2.483e-4,0.00449 -7.36e-4,0.00855 0,0.02699 0.011645,0.026005 0.020694,0.053173 0.026968,0.080969 0.020389,0.094763 0.045491,0.1804764 0.1078722,0.2429078 l 6.1487155,6.0187143 c 0.137953,0.138064 0.3722747,0.140231 0.566329,-0.05398 L 9.6562476,13.15326 c 0.1859898,-0.18614 0.1831523,-0.464455 0.053936,-0.593775 L 7.2021552,10.049438 C 6.9708125,9.8118139 7.1674018,9.5081732 7.4988037,9.5 L 13,9.5 c 0.247903,0 0.5,-0.2518972 0.5,-0.5 l 0,-2 C 13.5,6.7518974 13.247903,6.5 13,6.5 12.215837,6.5 9.381968,6.5 7.4718357,6.5 7.1404336,6.491827 6.9438441,6.2385994 7.1751871,6.0009753 L 9.7101837,3.4639386 C 9.8481358,3.3258756 9.8503019,3.0913641 9.6562476,2.8971538 L 8.4426854,1.6556251 C 8.3454166,1.5582782 8.218647,1.5246627 8.1190688,1.5206764 z"
     id="path3996"
     style="opacity:0.1;color:#000000;fill:none;stroke:#000000;stroke-width:1;stroke-linecap:round;stroke-linejoin:round;stroke-miterlimit:4;stroke-opacity:1;stroke-dasharray:none;stroke-dashoffset:0;marker:none;visibility:visible;display:inline;overflow:visible;enable-background:accumulate" />
  <path
     d="M 8.1460369,2.546287 2.5366824,8.0252066 8.1190688,13.504126 8.7932701,12.829383 6.6088581,10.643213 C 5.9036248,9.9433345 6.5056296,8.4987217 7.4988037,8.5 L 12.5,8.5 l 0,-1 -5.0281643,0 C 6.478662,7.5012779 5.8766576,6.1070795 6.5818901,5.4072008 l 2.21138,-2.2131598 z"
     id="path3996-3"
     style="opacity:0.02999998;color:#000000;fill:none;stroke:#000000;stroke-width:1;stroke-linecap:butt;stroke-linejoin:miter;stroke-miterlimit:4;stroke-opacity:1;stroke-dasharray:none;stroke-dashoffset:0;marker:none;visibility:visible;display:inline;overflow:visible;enable-background:accumulate" />
</svg>

<svg xmlns="http://www.w3.org/2000/svg" xmlns:xlink="http://www.w3.org/1999/xlink" viewBox="0 0 16 16"><defs><radialGradient cx="16.202" cy="-19.005" r="20" fx="16.202" fy="-19.005" id="b" xlink:href="#a" gradientUnits="userSpaceOnUse" gradientTransform="matrix(0 1.2955 -1.3153 0 -17.156 -22.27)"/><linearGradient id="a"><stop offset="0" stop-color="#737373"/><stop offset=".262" stop-color="#636363"/><stop offset=".705" stop-color="#4b4b4b"/><stop offset="1" stop-color="#3f3f3f"/></linearGradient></defs><path d="M8.16 2.003a.772.772 0 0 0-.572.245l-6.22 6.085a.9.9 0 0 0-.247.436.845.845 0 0 0-.02.24v.08c.01.05.01.09.03.134a.93.93 0 0 0 .247.464l6.22 6.085c.316.315.83.287 1.174-.055l1.22-1.22c.34-.343.37-.886.054-1.2L7.506 11h5.73c.483 0 .873-.628.873-1.112V8.142a.87.87 0 0 0-.88-.873H7.48l2.565-2.57c.316-.32.288-.83-.054-1.18L8.76 2.27a.904.904 0 0 0-.6-.27z" opacity=".35" color="#000" fill="#fff" overflow="visible"/><path d="M8.146.99a.762.762 0 0 0-.566.243L1.27 7.35a.89.89 0 0 0-.243.432.837.837 0 0 0-.027.243.87.87 0 0 0 0 .08c.008.05.01.09.027.136a.92.92 0 0 0 .243.46l6.31 6.08c.312.31.83.29 1.16-.05l1.213-1.27c.33-.346.366-.875.054-1.187L7.8 10h5.362c.478 0 .863-.633.863-1.11V7.16c0-.48-.385-1.162-.863-1.162H7.8l2.207-2.24c.31-.314.284-.82-.054-1.16L8.74 1.26a.893.893 0 0 0-.594-.27z" color="#000" fill="url(#b)" overflow="visible"/><path d="M8.12 1.52c-.074-.002-.154.02-.244.11L1.728 7.646a.507.507 0 0 0-.135.243c-.015.06 0 .09 0 .1v.026c.007.04 0 .02 0 .027v.027a.43.43 0 0 1 .027.08.46.46 0 0 0 .108.244l6.148 6.02c.138.14.373.14.567-.053l1.213-1.213c.186-.186.183-.464.054-.594l-2.508-2.51c-.23-.24-.035-.544.297-.55H13c.248 0 .5-.254.5-.5V7c0-.248-.252-.5-.5-.5H7.472c-.332-.008-.528-.26-.297-.5L9.71 3.465c.138-.138.14-.373-.054-.567l-1.213-1.24a.485.485 0 0 0-.324-.136z" opacity=".1" color="#000" fill="none" stroke="#000" stroke-linecap="round" stroke-linejoin="round" overflow="visible"/><path d="M8.146 2.546l-5.61 5.48 5.583 5.478.67-.675-2.19-2.19c-.707-.7-.105-2.15.89-2.148h5v-1H7.47c-.994 0-1.596-1.394-.89-2.094l2.21-2.214z" opacity=".03" color="#000" fill="none" stroke="#000" overflow="visible"/></svg>
